dist/svgs/unicons/line/horizontal-distribution-left.svg

<svg xmlns="http://www.w3.org/2000/svg" viewBox="0 0 24 24"><path d="M11 4H6V3a1 1 0 00-2 0v18a1 1 0 002 0v-1h5a1 1 0 001-1V5a1 1 0 00-1-1zm-1 14H6V6h4zm9-13h-3V3a1 1 0 00-2 0v18a1 1 0 002 0v-2h3a1 1 0 001-1V6a1 1 0 00-1-1zm-1 12h-2V7h2z"/></svg>

<svg xmlns="http://www.w3.org/2000/svg" viewBox="0 0 24 24"><path d="M11,4H6V3A1,1,0,0,0,4,3V21a1,1,0,0,0,2,0V20h5a1,1,0,0,0,1-1V5A1,1,0,0,0,11,4ZM10,18H6V6h4ZM19,5H16V3a1,1,0,0,0-2,0V21a1,1,0,0,0,2,0V19h3a1,1,0,0,0,1-1V6A1,1,0,0,0,19,5ZM18,17H16V7h2Z"/></svg>
